assets/azureresourcegrouplist/original.svg

<svg height="18" viewBox="0 0 18 18" width="18" xmlns="http://www.w3.org/2000/svg" xmlns:xlink="http://www.w3.org/1999/xlink"><linearGradient id="a" gradientTransform="matrix(.5 0 0 -.5 3224.856 4823.856)" gradientUnits="userSpaceOnUse" x1="-6428.21" x2="-6428.21" y1="9646.124" y2="9617.899"><stop offset="0" stop-color="#5ea0ef"/><stop offset=".178" stop-color="#589eed"/><stop offset=".406" stop-color="#4897e9"/><stop offset=".662" stop-color="#2e8ce1"/><stop offset=".936" stop-color="#0a7cd7"/><stop offset="1" stop-color="#0078d4"/></linearGradient><path d="m8.438 10.379h4.234v4.234h-4.234zm-4.938-5.645h4.232v-4.234h-3.646a.59.59 0 0 0 -.588.588zm.588 9.879h3.644v-4.234h-4.232v3.646a.59.59 0 0 0 .586.588zm-.588-4.939h4.232v-4.234h-4.232zm9.88 4.939h3.646a.59.59 0 0 0 .588-.588v-3.646h-4.236zm-4.942-4.939h4.234v-4.234h-4.234zm4.94 0h4.234v-4.234h-4.234zm0-9.174v4.234h4.234v-3.646a.59.59 0 0 0 -.588-.588zm-4.94 4.234h4.234v-4.234h-4.234z" fill="url(#a)"/><rect fill="#198ab3" height="1.243" rx=".581" transform="matrix(.70710678 -.70710678 .70710678 .70710678 -10.13314 6.282435)" width="5.457" x="-.212" y="14.751"/><circle cx="5.959" cy="11.709" fill="#50e6ff" r="3.744"/><circle cx="5.952" cy="11.642" fill="#fff" r="2.94"/></svg>

<svg xmlns="http://www.w3.org/2000/svg" width="18" height="18" viewBox="0 0 18 18"><defs><linearGradient id="fb5d9d20-fc2c-4e2c-bffd-dc236176d8b2" x1="-6428.21" x2="-6428.21" y1="9646.124" y2="9617.899" gradientTransform="matrix(.5 0 0 -.5 3224.856 4823.856)" gradientUnits="userSpaceOnUse"><stop offset="0" stop-color="#5ea0ef"/><stop offset=".178" stop-color="#589eed"/><stop offset=".406" stop-color="#4897e9"/><stop offset=".662" stop-color="#2e8ce1"/><stop offset=".936" stop-color="#0a7cd7"/><stop offset="1" stop-color="#0078d4"/></linearGradient></defs><title>MsPortalFx.base.images-52</title><g id="a05a9809-540f-4ec8-9a73-07896b5e7f5c"><path fill="url(#fb5d9d20-fc2c-4e2c-bffd-dc236176d8b2)" d="M8.438 10.379h4.234v4.234H8.438ZM3.5 4.734h4.232V.5H4.086a.59.59 0 0 0-.588.588Zm.588 9.879h3.644v-4.234H3.5v3.646a.59.59 0 0 0 .586.588ZM3.5 9.674h4.232V5.44H3.5Zm9.88 4.939h3.646a.59.59 0 0 0 .588-.588v-3.646h-4.236ZM8.438 9.674h4.234V5.44H8.438Zm4.94 0h4.234V5.44h-4.234Zm0-9.174v4.234h4.234V1.088A.59.59 0 0 0 17.024.5Zm-4.94 4.234h4.234V.5H8.438Z"/><rect width="5.457" height="1.243" x="-.212" y="14.751" fill="#198ab3" rx=".581" transform="rotate(-45 2.517 15.373)"/><circle cx="5.959" cy="11.709" r="3.744" fill="#50e6ff"/><circle cx="5.952" cy="11.642" r="2.94" fill="#fff"/></g></svg>
